newicons/creature_journal.svg

<?xml version="1.0" encoding="UTF-8" standalone="no"?>
<svg
   id="Layer_1"
   data-name="Layer 1"
   version="1.1"
   viewBox="0 0 48 48"
   xml:space="preserve"
   width="48"
   height="48"
   xmlns="http://www.w3.org/2000/svg"
><defs
     id="defs1"><style
       id="style1">
      .cls-1 {
        fill: none;
        stroke: #fff;
        stroke-linecap: round;
        stroke-linejoin: round;
      }
    </style></defs><circle
     class="q"
     cx="23.999989"
     cy="30.564837"
     r="0.75"
     style="fill:#ffffff;stroke:none;stroke-width:1;stroke-dasharray:none" /><path
     class="cls-1"
     d="m 20.908109,22.413485 c 0,-0.853799 0.346067,-1.626769 0.905587,-2.186291 0.55952,-0.559527 1.332492,-0.905601 2.186304,-0.905601 1.707595,0 3.091891,1.384288 3.091891,3.091892 0,0.853799 -0.288375,1.691143 -0.905601,2.18629 -0.639852,0.513311 -2.197407,1.354148 -2.197407,2.662357" /><rect
     class="cls-1"
     x="8.5"
     y="4.5"
     width="31"
     height="39"
     rx="4"
     ry="4" /><path
     class="cls-1"
     d="m 33,37 c 0,0.555166 -0.45006,1.005218 -1.00522,1.005218 C 31.37765,38.005219 31.19059,37.6807 31,37.50261 30.8094,37.324519 30.62234,37 30.00521,37 29.45005,37 29,37.450052 29,38.005218" /><path
     class="cls-1"
     d="m 26,37 c 0,0.555166 -0.45006,1.005218 -1.00522,1.005218 C 24.37765,38.005219 24.19059,37.6807 24,37.50261 23.8094,37.324519 23.62234,37 23.00521,37 22.45005,37 22,37.450052 22,38.005218" /><path
     class="cls-1"
     d="m 19,37 c 0,0.555166 -0.45006,1.005218 -1.00522,1.005218 C 17.37765,38.005219 17.19059,37.6807 17,37.50261 16.8094,37.324519 16.62234,37 16.00521,37 15.45005,37 15,37.450052 15,38.005218" /><rect
     class="cls-1"
     width="9"
     height="9"
     x="11.1"
     y="8.5" /><rect
     class="cls-1"
     id="rect2-3"
     width="3.796875"
     height="3.796875"
     x="13.701563"
     y="11.101562" /><path
     d="m 28.865362,14.326505 v 0.03277 c 0,1.463553 -1.18645,2.649998 -2.65,2.649998 h -10e-6 c -1.46355,0 -2.64999,-1.186445 -2.64999,-2.649998 v -2.700001 c 0,-1.463555 1.18644,-2.6500004 2.65,-2.6499974 v 0 c 1.46355,2e-6 2.65,1.1864454 2.65,2.6499974 v 0.03277"
     class="cls-1" /><path
     d="m 31.568191,16.389583 c 0.55226,0.462753 1.14854,0.674798 2.4876,0.674798 h 0.31197 c 1.10431,0 1.99954,-0.895222 1.99954,-1.999533 v -4e-6 c 0,-1.104312 -0.89523,-1.999533 -1.99954,-1.999533" class="cls-1"/><path
     class="cls-1"
     d="m 31.567301,9.7325697 c 0.55349,-0.461275 1.15034,-0.671725 2.48939,-0.668144 l 0.31107,0.0018 c 1.10431,0 1.99954,0.895221 1.99954,1.9995333 v 4e-6 c 0,1.104311 -0.89523,1.999533 -1.99954,1.999533" /><line
     class="cls-1"
     x1="32.83075"
     y1="13.06531"
     x2="34.367775"
     y2="13.06531" /></svg>

<?xml version="1.0" encoding="UTF-8"?><svg id="b" xmlns="http://www.w3.org/2000/svg" viewBox="0 0 48 48"><defs><style>.d{fill:#fff;}.e{fill:none;stroke:#fff;stroke-linecap:round;stroke-linejoin:round;}</style></defs><circle class="d" cx="24" cy="30.5648" r=".75"/><path class="e" d="M20.9081,22.4135c0-.8538.3461-1.6268.9056-2.1863.5595-.5595,1.3325-.9056,2.1863-.9056,1.7076,0,3.0919,1.3843,3.0919,3.0919,0,.8538-.2884,1.6911-.9056,2.1863-.6399.5133-2.1974,1.3541-2.1974,2.6624"/><rect class="e" x="8.5" y="4.5" width="31" height="39" rx="4" ry="4"/><path class="e" d="M33,37c0,.5552-.4501,1.0052-1.0052,1.0052-.6171,0-.8042-.3245-.9948-.5026-.1906-.1781-.3777-.5026-.9948-.5026-.5552,0-1.0052.4501-1.0052,1.0052"/><path class="e" d="M26,37c0,.5552-.4501,1.0052-1.0052,1.0052-.6171,0-.8042-.3245-.9948-.5026-.1906-.1781-.3777-.5026-.9948-.5026-.5552,0-1.0052.4501-1.0052,1.0052"/><path class="e" d="M19,37c0,.5552-.4501,1.0052-1.0052,1.0052-.6171,0-.8042-.3245-.9948-.5026-.1906-.1781-.3777-.5026-.9948-.5026-.5552,0-1.0052.4501-1.0052,1.0052"/><rect class="e" x="11.1" y="8.5" width="9" height="9"/><rect id="c" class="e" x="13.7016" y="11.1016" width="3.7969" height="3.7969"/><path class="e" d="M28.8654,14.3265v.0328c0,1.4636-1.1864,2.65-2.65,2.65h0c-1.4636,0-2.65-1.1864-2.65-2.65v-2.7c0-1.4636,1.1864-2.65,2.65-2.65h0c1.4636,0,2.65,1.1864,2.65,2.65v.0328"/><path class="e" d="M31.5682,16.3896c.5523.4628,1.1485.6748,2.4876.6748h.312c1.1043,0,1.9995-.8952,1.9995-1.9995h0c0-1.1043-.8952-1.9995-1.9995-1.9995"/><path class="e" d="M31.5673,9.7326c.5535-.4613,1.1503-.6717,2.4894-.6681l.3111.0018c1.1043,0,1.9995.8952,1.9995,1.9995h0c0,1.1043-.8952,1.9995-1.9995,1.9995"/><line class="e" x1="32.8307" y1="13.0653" x2="34.3678" y2="13.0653"/></svg>
